public/assets/images/field-m08.svg

<svg width="18" height="18" viewBox="0 0 18 18" fill="none" xmlns="http://www.w3.org/2000/svg">
<path d="M10.9204 3.015V2.965H10.8704H9.40741H9.35741V3.015V15.615C9.35741 15.7349 9.32583 15.8158 9.27121 15.8674C9.21607 15.9195 9.12878 15.95 9 15.95H8.68519C8.55641 15.95 8.46912 15.9195 8.41397 15.8674C8.35935 15.8158 8.32778 15.7349 8.32778 15.615V8.195V8.145H8.27778C7.82709 8.145 7.4077 8.06445 7.0191 7.90379C6.6294 7.74268 6.28895 7.52427 5.9973 7.24866C5.70567 6.97306 5.47483 6.65162 5.30463 6.28399C5.13499 5.91757 5.05 5.52228 5.05 5.0975C5.05 4.67272 5.13499 4.27743 5.30463 3.91101C5.47483 3.54339 5.70567 3.22194 5.9973 2.94634C6.28895 2.67073 6.6294 2.45232 7.0191 2.29121C7.4077 2.13055 7.82709 2.05 8.27778 2.05H11.5926C11.7214 2.05 11.8087 2.08048 11.8638 2.13259C11.9184 2.1842 11.95 2.26512 11.95 2.385V15.615C11.95 15.7349 11.9184 15.8158 11.8638 15.8674C11.8087 15.9195 11.7214 15.95 11.5926 15.95H11.2778C11.149 15.95 11.0617 15.9195 11.0066 15.8674C10.9519 15.8158 10.9204 15.7349 10.9204 15.615V3.015Z" fill="#4F66EE" stroke="#F8F8F8" stroke-width="0.1"/>
</svg>

<svg width="18" height="18" fill="none" xmlns="http://www.w3.org/2000/svg"><path d="M10.92 3.015v-.05H9.357v12.65c0 .12-.031.2-.086.252-.055.052-.142.083-.271.083h-.315c-.129 0-.216-.03-.271-.083-.055-.051-.086-.132-.086-.252v-7.47h-.05c-.45 0-.87-.08-1.259-.241-.39-.161-.73-.38-1.022-.655a3.115 3.115 0 01-.692-.965 2.789 2.789 0 01-.255-1.186c0-.425.085-.82.255-1.187.17-.368.4-.69.692-.965a3.317 3.317 0 011.022-.655c.389-.16.808-.241 1.259-.241h3.315c.128 0 .216.03.27.083.055.051.087.132.087.252v13.23c0 .12-.032.2-.086.252-.055.052-.143.083-.271.083h-.315c-.129 0-.216-.03-.271-.083-.055-.051-.087-.132-.087-.252v-12.6z" fill="#4F66EE" stroke="#F8F8F8" stroke-width=".1"/></svg>
